src/lib/packages/icons/src/assets/filled/expand.svg

<svg xmlns="http://www.w3.org/2000/svg" width="24" height="24" fill="none"><path fill="currentColor" d="M22 4.5V8a1 1 0 1 1-2 0V4.5c0-.449-.052-.5-.5-.5H16a1 1 0 1 1 0-2h3.5c1.542 0 2.5.958 2.5 2.5ZM8 2H4.5C2.958 2 2 2.958 2 4.5V8a1 1 0 1 0 2 0V4.5c0-.449.052-.5.5-.5H8a1 1 0 1 0 0-2Zm0 18H4.5c-.448 0-.5-.051-.5-.5V16a1 1 0 1 0-2 0v3.5c0 1.542.958 2.5 2.5 2.5H8a1 1 0 1 0 0-2Zm13-5a1 1 0 0 0-1 1v3.5c0 .449-.052.5-.5.5H16a1 1 0 1 0 0 2h3.5c1.542 0 2.5-.958 2.5-2.5V16a1 1 0 0 0-1-1Z"/></svg>

<svg width="24" height="24" viewBox="0 0 24 24" fill="none" xmlns="http://www.w3.org/2000/svg">
<path d="M22 4.5V8C22 8.552 21.553 9 21 9C20.447 9 20 8.552 20 8V4.5C20 4.051 19.948 4 19.5 4H16C15.447 4 15 3.552 15 3C15 2.448 15.447 2 16 2H19.5C21.042 2 22 2.958 22 4.5ZM8 2H4.5C2.958 2 2 2.958 2 4.5V8C2 8.552 2.447 9 3 9C3.553 9 4 8.552 4 8V4.5C4 4.051 4.052 4 4.5 4H8C8.553 4 9 3.552 9 3C9 2.448 8.553 2 8 2ZM8 20H4.5C4.052 20 4 19.949 4 19.5V16C4 15.448 3.553 15 3 15C2.447 15 2 15.448 2 16V19.5C2 21.042 2.958 22 4.5 22H8C8.553 22 9 21.552 9 21C9 20.448 8.553 20 8 20ZM21 15C20.447 15 20 15.448 20 16V19.5C20 19.949 19.948 20 19.5 20H16C15.447 20 15 20.448 15 21C15 21.552 15.447 22 16 22H19.5C21.042 22 22 21.042 22 19.5V16C22 15.448 21.553 15 21 15Z" fill="currentColor"/>
</svg>
